!!!OTL: "Das Stelldichein" WIAR I VON ZELL AUSSA GEH
!!!ARE: Europa, Mitteleuropa, Oesterreich
!!!SCT: Z1240
!!!YEM: Copyright 1995, estate of Helmut Schaffrath.
**kern
*ICvox
*Ivox
*M3/8
*k[f#c#]
*D:
{8f#
8f#
8f#
=1
8g
8f#
8g
=2
4.a}
=3
{8a
8dd
8f#
=4
8a
8g
8e
=5
4.d}
=6
{8a
8dd
8f#
=7
8a
8g
8d
=8
8g
8b
8d
=9
8g
8f#
8d}
=10
{8f#
8f#
8f#
=11
8g
8f#
8g
=12
4.a}
=13
{8a
8dd
8f#
=14
8a
8g
8e
=15
4.d}
==
!!!AGN: Liebes - Lied
!!!ONB: ESAC (Essen Associative Code) Database: ZUCCAL
!!!AMT: simple triple
!!!AIN: vox
!!!EED: Helmut Schaffrath
!!!EEV: 1.0
*-
